icon/ir/gas.svg

<svg stroke-width="1.5" viewBox="0 0 24 24" fill="none" xmlns="http://www.w3.org/2000/svg" height="1em" width="1em">
  <path d="M9 8C9 6.34315 10.3431 5 12 5V5C13.6569 5 15 6.34315 15 8V21.4C15 21.7314 14.7314 22 14.4 22H9.6C9.26863 22 9 21.7314 9 21.4V8Z" stroke="currentColor" stroke-linecap="round"/>
  <path d="M9 11H15" stroke="currentColor" stroke-linecap="round"/>
  <path d="M12 5V2M12 2H11M12 2H13" stroke="currentColor" stroke-linecap="round"/>
</svg>

<svg width="24" height="24" stroke-width="1.5" fill="none" xmlns="http://www.w3.org/2000/svg"><path d="M9 8a3 3 0 0 1 3-3v0a3 3 0 0 1 3 3v13.4a.6.6 0 0 1-.6.6H9.6a.6.6 0 0 1-.6-.6V8ZM9 11h6M12 5V2m0 0h-1m1 0h1" stroke="currentColor" stroke-linecap="round"/></svg>
